X:1
T:Tail Toddle
M:4/4
L:1/8
K:F
 c2| F2 AF B2 AG| FF AF G2 EC| FF AA BB AG| FF AF G2| EC| BD DD DD D2|\
 cD DD G2 EC| BD DD DD ED| CC FF G2| EC||

